svg/blobs-icons/no-decorations/coins.svg

<svg xmlns="http://www.w3.org/2000/svg" xmlns:xlink="http://www.w3.org/1999/xlink" preserveAspectRatio="xMidYMid" width="216" height="154" viewBox="0 0 216 154"><defs><style>.cls-3{fill:#fbb713}.cls-4{fill:#000;opacity:.25}.cls-12{fill:#ededed}</style></defs><g id="group-131svg"><path d="M215.516 106.42C215.121 87.95 167.152 83.002 138.741 83.002 110.331 83.002 62.362 87.95 61.966 106.42H61.931s0 23.854.0 23.854c0 18.612 48.283 23.575 76.81 23.575 28.528.0 76.811-4.99199999999999 76.811-23.686V106.42S215.516 106.42 215.516 106.42z" id="path-1" class="cls-3" fill-rule="evenodd"/><path d="M215.516 106.42C215.121 87.95 167.152 83.002 138.741 83.002 110.331 83.002 62.362 87.95 61.966 106.42H61.931s0 23.854.0 23.854c0 18.612 48.283 23.575 76.81 23.575 28.528.0 76.811-4.99199999999999 76.811-23.686V106.42S215.516 106.42 215.516 106.42z" id="path-2" class="cls-4" fill-rule="evenodd"/><path d="M138.741 130.268c-28.527.0-76.81-4.974-76.81-23.629.0-18.658 48.283-23.637 76.81-23.637 28.528.0 76.811 4.979 76.811 23.637.0 18.655-48.283 23.629-76.811 23.629z" id="path-3" class="cls-3" fill-rule="evenodd"/><path d="M186.162 63.309C185.768 44.838 137.798 39.89 109.388 39.89c-28.41.0-76.38 4.948-76.775 23.419H32.577s0 23.852.0 23.852c0 18.613 48.283 23.576 76.811 23.576C137.915 110.737 186.199 105.745 186.199 87.052V63.309S186.162 63.309 186.162 63.309z" id="path-4" class="cls-3" fill-rule="evenodd"/><path d="M186.162 63.309C185.768 44.838 137.798 39.89 109.388 39.89c-28.41.0-76.38 4.948-76.775 23.419H32.577s0 23.852.0 23.852c0 18.613 48.283 23.576 76.811 23.576C137.915 110.737 186.199 105.745 186.199 87.052V63.309S186.162 63.309 186.162 63.309z" id="path-5" class="cls-4" fill-rule="evenodd"/><path d="M109.388 87.156C80.86 87.156 32.577 82.181 32.577 63.528c0-18.659 48.283-23.638 76.811-23.638 28.527.0 76.811 4.979 76.811 23.638.0 18.653-48.284 23.628-76.811 23.628z" id="path-6" class="cls-3" fill-rule="evenodd"/><path d="M153.598 23.407C153.203 4.936 105.234-.012 76.824-.012S.444 4.936.049 23.407H.013s0 23.852.0 23.852c0 18.614 48.283 23.577 76.811 23.577 28.527.0 76.81-4.991 76.81-23.686V23.407S153.598 23.407 153.598 23.407z" id="path-7" class="cls-3" fill-rule="evenodd"/><path d="M153.598 23.407C153.203 4.936 105.234-.012 76.824-.012S.444 4.936.049 23.407H.013s0 23.852.0 23.852c0 18.614 48.283 23.577 76.811 23.577 28.527.0 76.81-4.991 76.81-23.686V23.407S153.598 23.407 153.598 23.407z" id="path-8" class="cls-4" fill-rule="evenodd"/><path d="M76.824 47.255C48.296 47.255.012 42.281.012 23.627.012 4.967 48.296-.012 76.824-.012c28.527.0 76.81 4.979 76.81 23.639.0 18.654-48.283 23.628-76.81 23.628z" id="path-9" class="cls-3" fill-rule="evenodd"/><path d="M19.197 32.599c-1.984.0-3.593-1.608-3.593-3.591.0-20.435 51.38-21.471 61.679-21.471C79.267 7.537 80.875 9.146 80.875 11.13c0 1.983-1.608 3.592-3.592 3.592-26.787.0-54.494 5.342-54.494 14.286.0 1.983-1.608 3.591-3.592 3.591z" id="path-10" class="cls-12" fill-rule="evenodd"/></g></svg>

<svg xmlns="http://www.w3.org/2000/svg" xmlns:xlink="http://www.w3.org/1999/xlink" preserveAspectRatio="xMidYMid" width="216" height="154" viewBox="0 0 216 154">
  <defs>
    <style>

      .cls-3 {
        fill: #fbb713;
      }

      .cls-4 {
        fill: #000000;
        opacity: 0.25;
      }

      .cls-12 {
        fill: #ededed;
      }
    </style>
  </defs>
  <g id="group-131svg">
    <path d="M215.516,106.420 C215.121,87.950 167.152,83.002 138.741,83.002 C110.331,83.002 62.362,87.950 61.966,106.420 C61.966,106.420 61.931,106.420 61.931,106.420 C61.931,106.420 61.931,130.274 61.931,130.274 C61.931,148.886 110.214,153.849 138.741,153.849 C167.269,153.849 215.552,148.857 215.552,130.163 C215.552,130.163 215.552,106.420 215.552,106.420 C215.552,106.420 215.516,106.420 215.516,106.420 Z" id="path-1" class="cls-3" fill-rule="evenodd"/>
    <path d="M215.516,106.420 C215.121,87.950 167.152,83.002 138.741,83.002 C110.331,83.002 62.362,87.950 61.966,106.420 C61.966,106.420 61.931,106.420 61.931,106.420 C61.931,106.420 61.931,130.274 61.931,130.274 C61.931,148.886 110.214,153.849 138.741,153.849 C167.269,153.849 215.552,148.857 215.552,130.163 C215.552,130.163 215.552,106.420 215.552,106.420 C215.552,106.420 215.516,106.420 215.516,106.420 Z" id="path-2" class="cls-4" fill-rule="evenodd"/>
    <path d="M138.741,130.268 C110.214,130.268 61.931,125.294 61.931,106.639 C61.931,87.981 110.214,83.002 138.741,83.002 C167.269,83.002 215.552,87.981 215.552,106.639 C215.552,125.294 167.269,130.268 138.741,130.268 Z" id="path-3" class="cls-3" fill-rule="evenodd"/>
    <path d="M186.162,63.309 C185.768,44.838 137.798,39.890 109.388,39.890 C80.978,39.890 33.008,44.838 32.613,63.309 C32.613,63.309 32.577,63.309 32.577,63.309 C32.577,63.309 32.577,87.161 32.577,87.161 C32.577,105.774 80.860,110.737 109.388,110.737 C137.915,110.737 186.199,105.745 186.199,87.052 C186.199,87.052 186.199,63.309 186.199,63.309 C186.199,63.309 186.162,63.309 186.162,63.309 Z" id="path-4" class="cls-3" fill-rule="evenodd"/>
    <path d="M186.162,63.309 C185.768,44.838 137.798,39.890 109.388,39.890 C80.978,39.890 33.008,44.838 32.613,63.309 C32.613,63.309 32.577,63.309 32.577,63.309 C32.577,63.309 32.577,87.161 32.577,87.161 C32.577,105.774 80.860,110.737 109.388,110.737 C137.915,110.737 186.199,105.745 186.199,87.052 C186.199,87.052 186.199,63.309 186.199,63.309 C186.199,63.309 186.162,63.309 186.162,63.309 Z" id="path-5" class="cls-4" fill-rule="evenodd"/>
    <path d="M109.388,87.156 C80.860,87.156 32.577,82.181 32.577,63.528 C32.577,44.869 80.860,39.890 109.388,39.890 C137.915,39.890 186.199,44.869 186.199,63.528 C186.199,82.181 137.915,87.156 109.388,87.156 Z" id="path-6" class="cls-3" fill-rule="evenodd"/>
    <path d="M153.598,23.407 C153.203,4.936 105.234,-0.012 76.824,-0.012 C48.414,-0.012 0.444,4.936 0.049,23.407 C0.049,23.407 0.013,23.407 0.013,23.407 C0.013,23.407 0.013,47.259 0.013,47.259 C0.013,65.873 48.296,70.836 76.824,70.836 C105.351,70.836 153.634,65.845 153.634,47.150 C153.634,47.150 153.634,23.407 153.634,23.407 C153.634,23.407 153.598,23.407 153.598,23.407 Z" id="path-7" class="cls-3" fill-rule="evenodd"/>
    <path d="M153.598,23.407 C153.203,4.936 105.234,-0.012 76.824,-0.012 C48.414,-0.012 0.444,4.936 0.049,23.407 C0.049,23.407 0.013,23.407 0.013,23.407 C0.013,23.407 0.013,47.259 0.013,47.259 C0.013,65.873 48.296,70.836 76.824,70.836 C105.351,70.836 153.634,65.845 153.634,47.150 C153.634,47.150 153.634,23.407 153.634,23.407 C153.634,23.407 153.598,23.407 153.598,23.407 Z" id="path-8" class="cls-4" fill-rule="evenodd"/>
    <path d="M76.824,47.255 C48.296,47.255 0.012,42.281 0.012,23.627 C0.012,4.967 48.296,-0.012 76.824,-0.012 C105.351,-0.012 153.634,4.967 153.634,23.627 C153.634,42.281 105.351,47.255 76.824,47.255 Z" id="path-9" class="cls-3" fill-rule="evenodd"/>
    <path d="M19.197,32.599 C17.213,32.599 15.604,30.991 15.604,29.008 C15.604,8.573 66.984,7.537 77.283,7.537 C79.267,7.537 80.875,9.146 80.875,11.130 C80.875,13.113 79.267,14.722 77.283,14.722 C50.496,14.722 22.789,20.064 22.789,29.008 C22.789,30.991 21.181,32.599 19.197,32.599 Z" id="path-10" class="cls-12" fill-rule="evenodd"/>
  </g>
</svg>
